X:357
T:Fortune my foe
C:anon.
O:England
Z:Transcribed by Frank Nordberg - http://www.musicaviva.com
F:http://abc.musicaviva.com/tunes/england/fortune-my-foe/fortune-my-foe.abc
M:4/4
L:1/4
Q:120
K:Gm
G2 GA|B2 zA|Gd cB|A3z:|
d2 dd|d2 zd|df =ed|c3z|
c2 fe|d2 zc/B/|AG AA|G3z|]
W:
W:
W:  From Musica Viva - http://www.musicaviva.com
W:  the Internet center for free sheet music downloads.
